X:11466
T:Music in the Glen
M:C
L:1/8
K:G Major
F|G2BG EGDC|B,DGB AGAB|c2ec B2dB|cABG AGED|!
G2BG EGDC|B,DGB AGAB|cdef gfge|dcBA G3:|!
A|BGdG eGdc|BGdB cAFA|BGdG eGdf|gdBG AGEG|!
BGdG eGdf|gdfg afdf|gefd ecdB|cABG AGE:|!
